!!!!SEGMENT: pl-kk--kk-i-328--005_constanzi--beatus-vir-iucundus-homo.krn
!!!cenid: 17xx:2143
!!!COM: Constanzi
!!!COM-rismid: pe50046616
!!!CDT:
!!!CNT:
!!!OPR: Beatus vir
!!!OTL: Iucundus homo
!!!OMV: 005
!!!PDT:
!!!AGN: Sacred
!!!SMS-siglum: PL-Kk
!!!SMS-shelfmark: Kk.I.328
!!!SMS-shelfwork: 001-005 M
!!!SMS-variant:
!!!SMS-altvar:
!!!NIFC-rismid: 1001145915
!!!URL-scan: http://repozytorium.nifc.pl/skany/pl-kk-nut--i-328
!!!ONB-nifc: UWAGA: części Beatus vir: 1. Beatus vir, 2. Potens in terra, 3. Gloria et divitiae, 4. Exortum est 5. Iucundus homo, 6. In memoria, 7. Paratum cor eius, 8. Peccator videbit, 9. Desiderius, 10. Gloria patri
!!!key:
**kern	**fba	**kern	**kern	**kern	**kern	**kern	**kern	**text
*part7	*part7	*part6	*part5	*part4	*part3	*part2	*part1	*part1
*staff7	*staff7	*staff6	*staff5	*staff4	*staff3	*staff2	*staff1	*staff1
*	*	*group2	*group2	*group2	*group2	*group1	*group1	*
*Iorgan	*	*Iempty	*Itenor	*Ialto	*Ivox	*Ialto	*Ivox	*
*I"Organo	*	*I"Baſso di Ripieno	*I"Tenore di Ripieno	*I"Alto di Ripieno	*I"Canto di ripieno	*I"Alto à 2.e di Concerto	*I"Canto à 2.e di concerto	*
*I'org	*	*I'B rip	*I'T rip	*I'A rip	*I'S rip	*I'A conc	*I'S conc	*
*clefF4	*	*clefF4	*clefC4	*clefC3	*clefC1	*clefC3	*clefC1	*
*k[f#c#g#]	*	*k[f#c#g#]	*k[f#c#g#]	*k[f#c#g#]	*k[f#c#g#]	*k[f#c#g#]	*k[c#f#g#]	*
*A:	*	*A:	*A:	*A:	*A:	*A:	*A:	*
*M2/4	*	*M2/4	*M2/4	*M2/4	*M2/4	*M2/4	*M2/4	*
*all\right	*	*	*	*	*	*	*all\right	*
=1	=1	=1	=1	=1	=1	=1	=1	=1
!	!	!	!	!	!	!	!LO:TX:t=P:problem=kolejność znaków cc# f# g#	!
!LO:TX:a:B:t=Allo	!	!	!	!	!	!	!LO:TX:a:B:t=Allo	!
!LO:TX:a:t=Canto Solo	!	!	!	!	!	!	!LO:TX:a:t=Solo	!
!LO:TX:a:t=Ritor(nel)lo.	!	!LO:TX:a:t=Iucundus homo Tacet	!LO:TX:a:t=Iucundus homo Tacet	!LO:TX:a:t=Iucundus homo Tacet	!LO:TX:a:t=Iucundus homo Tacet	!LO:TX:a:t=Iucundus homo Tacet	!LO:TX:b:t=2	!
8A\L	.	2ryy	2ryy	2ryy	2ryy	2ryy	2r	.
16B\L	.	.	.	.	.	.	.	.
16c#\JJ	.	.	.	.	.	.	.	.
8B\L	.	.	.	.	.	.	.	.
8A\J	.	.	.	.	.	.	.	.
=2	=2	=2	=2	=2	=2	=2	=2	=2
8G#X\L	.	2ryy	2ryy	2ryy	2ryy	2ryy	2r	.
8A\J	.	.	.	.	.	.	.	.
4r	.	.	.	.	.	.	.	.
=3	=3	=3	=3	=3	=3	=3	=3	=3
!LO:TX:a:t=C(ant)o.	!	!	!	!	!	!	!	!
4.A\	.	2ryy	2ryy	2ryy	2ryy	2ryy	4a\	Iu-
.	.	.	.	.	.	.	8b\	-cun-
8A\	.	.	.	.	.	.	8cc#\	-dus
!LO:LB:g=original	!	!	!	!	!	!	!	!
=4	=4	=4	=4	=4	=4	=4	=4	=4
8B\L	x #6	2ryy	2ryy	2ryy	2ryy	2ryy	8g#\	ho-
16c#\L	x 6	.	.	.	.	.	8a\	-mo
16B\JJ	.	.	.	.	.	.	.	.
8c#\L	.	.	.	.	.	.	8r	.
8A\J	.	.	.	.	.	.	8a\	qui
=5	=5	=5	=5	=5	=5	=5	=5	=5
8d\	.	2ryy	2ryy	2ryy	2ryy	2ryy	8ff#\	mi-
4c#\	.	.	.	.	.	.	4ee\	-se-
8B\	.	.	.	.	.	.	8dd\	.
!	!	!	!	!	!	!	!LO:LB:g=original	!
=6	=6	=6	=6	=6	=6	=6	=6	=6
8c#\	.	2ryy	2ryy	2ryy	2ryy	2ryy	8ee\	-re-
4B\	.	.	.	.	.	.	4dd\	.
8A\	.	.	.	.	.	.	8cc#\	-tur
=7	=7	=7	=7	=7	=7	=7	=7	=7
8B\	.	2ryy	2ryy	2ryy	2ryy	2ryy	8dd\	mi-
4A\	.	.	.	.	.	.	4cc#\	-se-
8G#\	.	.	.	.	.	.	8b\	.
!LO:LB:g=original	!	!	!	!	!	!	!	!
=8	=8	=8	=8	=8	=8	=8	=8	=8
4A\	.	2ryy	2ryy	2ryy	2ryy	2ryy	16cc#\LL	-re-
.	.	.	.	.	.	.	16dd\	.
.	.	.	.	.	.	.	16ee\	.
.	.	.	.	.	.	.	16dd\JJ	.
.	.	.	.	.	.	.	8qqdd/	.
8r	.	.	.	.	.	.	8cc#\	-tur
8C#\	.	.	.	.	.	.	16b\LL	et
.	.	.	.	.	.	.	16a\JJ	.
=9	=9	=9	=9	=9	=9	=9	=9	=9
4D\	6	2ryy	2ryy	2ryy	2ryy	2ryy	8b\	com-
.	5	.	.	.	.	.	4a\	.
4E\	4	.	.	.	.	.	.	.
.	3	.	.	.	.	.	8g#\	-mo-
!	!	!	!	!	!	!	!LO:LB:g=original	!
=10	=10	=10	=10	=10	=10	=10	=10	=10
8A\L	.	2ryy	2ryy	2ryy	2ryy	2ryy	4a\	-dat
8A\	.	.	.	.	.	.	.	.
8A\	.	.	.	.	.	.	8r	.
8A\J	.	.	.	.	.	.	8cc#\	dis-
=11	=11	=11	=11	=11	=11	=11	=11	=11
8G#\L	.	2ryy	2ryy	2ryy	2ryy	2ryy	16b\LL	-po-
.	.	.	.	.	.	.	16a#X\JJ	.
8G#\	.	.	.	.	.	.	4b\	-net
8G#\	.	.	.	.	.	.	.	.
8G#\J	.	.	.	.	.	.	8r	.
=12	=12	=12	=12	=12	=12	=12	=12	=12
8A\L	.	2ryy	2ryy	2ryy	2ryy	2ryy	8.cc#\L	ser-
8A\	.	.	.	.	.	.	.	.
.	.	.	.	.	.	.	16dd\Jk	.
.	.	.	.	.	.	.	8qqcc#/L	.
.	.	.	.	.	.	.	8qqdd/J	.
8A\	.	.	.	.	.	.	8ee\	-mo-
8A\J	.	.	.	.	.	.	16dd\LL	-neſ
.	.	.	.	.	.	.	16cc#\JJ	.
!LO:LB:g=original	!	!	!	!	!	!	!	!
=13	=13	=13	=13	=13	=13	=13	=13	=13
8E\L	6 4	2ryy	2ryy	2ryy	2ryy	2ryy	4cc#\	su-
8E\	.	.	.	.	.	.	.	.
8E\	5 3	.	.	.	.	.	4b\	-os
8E\J	.	.	.	.	.	.	.	.
=14	=14	=14	=14	=14	=14	=14	=14	=14
8BB/L	#	2ryy	2ryy	2ryy	2ryy	2ryy	8.a\L	ser-
8BB/	.	.	.	.	.	.	.	.
.	.	.	.	.	.	.	16b\Jk	.
8BB/	.	.	.	.	.	.	8cc#\	-mo-
8BB/J	.	.	.	.	.	.	16b\LL	-nes
.	.	.	.	.	.	.	16a\JJ	.
!	!	!	!	!	!	!	!LO:LB:g=original	!
=15	=15	=15	=15	=15	=15	=15	=15	=15
8E\L	4	2ryy	2ryy	2ryy	2ryy	2ryy	8a\	su-
8E\	.	.	.	.	.	.	8g#\	-os
8E\	#3	.	.	.	.	.	[4ee\	in
8E\J	.	.	.	.	.	.	.	.
=16	=16	=16	=16	=16	=16	=16	=16	=16
8AA/L	.	2ryy	2ryy	2ryy	2ryy	2ryy	16ee\LL]	.
.	.	.	.	.	.	.	16dd\JJ	.
8AA/	.	.	.	.	.	.	16cc#\LL	iu-
.	.	.	.	.	.	.	16b\JJ	.
8AA/	.	.	.	.	.	.	8a\	-di-
8AA/J	.	.	.	.	.	.	8g#\	-ci-
=17	=17	=17	=17	=17	=17	=17	=17	=17
*	*below	*	*	*	*	*	*	*
!LO:TX:t=P:problem=mixed beam	!	!	!	!	!	!	!	!
8BB/L	#	2ryy	2ryy	2ryy	2ryy	2ryy	4f#/	-o
8B\	.	.	.	.	.	.	.	.
8BB/	.	.	.	.	.	.	4r	.
8B\J	.	.	.	.	.	.	.	.
!LO:LB:g=original	!	!	!	!	!	!	!	!
=18	=18	=18	=18	=18	=18	=18	=18	=18
!LO:TX:t=P:problem=mixed beam	!	!	!	!	!	!	!	!
8BB/L	4	2ryy	2ryy	2ryy	2ryy	2ryy	8.a\	qui-
8B\	.	.	.	.	.	.	.	.
.	.	.	.	.	.	.	16b\	-a
.	.	.	.	.	.	.	8qqa/L	.
.	.	.	.	.	.	.	8qqb/J	.
8BB/	.	.	.	.	.	.	8cc#\	in
8B\J	.	.	.	.	.	.	16b\LL	ae-
.	.	.	.	.	.	.	16a\JJ	.
!	!	!	!	!	!	!	!LO:LB:g=original	!
=19	=19	=19	=19	=19	=19	=19	=19	=19
*	*above	*	*	*	*	*	*	*
!LO:TX:t=P:problem=mixed beam	!	!	!	!	!	!	!	!
8BB/L	6 4	2ryy	2ryy	2ryy	2ryy	2ryy	8g#\L	-ter-
8B\	.	.	.	.	.	.	8dd#X\J	.
8BB/	.	.	.	.	.	.	4ee\	-nu(m)
8B\J	.	.	.	.	.	.	.	.
=20	=20	=20	=20	=20	=20	=20	=20	=20
!LO:TX:t=P:problem=mixed beam	!	!	!	!	!	!	!	!
8BB/L	5 #3	2ryy	2ryy	2ryy	2ryy	2ryy	8.a\	qui-
8B\	.	.	.	.	.	.	.	.
.	.	.	.	.	.	.	16b\	-a
8BB/	.	.	.	.	.	.	8cc#\	in
8B\J	.	.	.	.	.	.	16b\LL	ae-
.	.	.	.	.	.	.	16a\JJ	.
=21	=21	=21	=21	=21	=21	=21	=21	=21
8E\L	.	2ryy	2ryy	2ryy	2ryy	2ryy	8g#\L	-ter-
8F#\	#6	.	.	.	.	.	8dd#X\J	.
8G#\	.	.	.	.	.	.	4ee\	-nu(m)
8A\J	.	.	.	.	.	.	.	.
=22	=22	=22	=22	=22	=22	=22	=22	=22
*2\right	*	*	*	*	*	*	*	*
2G#\	6	2ryy	2ryy	2ryy	2ryy	2ryy	8ee\	.
.	4	.	.	.	.	.	8ddn\	non
.	5	.	.	.	.	.	8dd\	com-
.	.	.	.	.	.	.	8dd\	-mo-
!LO:LB:g=original	!	!	!	!	!	!	!	!
=23	=23	=23	=23	=23	=23	=23	=23	=23
8A\L	.	2ryy	2ryy	2ryy	2ryy	2ryy	8cc#\L	-ve-
8G#\	.	.	.	.	.	.	8b\	.
8G#\	.	.	.	.	.	.	8b\	.
8G#\J	.	.	.	.	.	.	8b\J	.
!	!	!	!	!	!	!	!LO:LB:g=original	!
=24	=24	=24	=24	=24	=24	=24	=24	=24
.	.	.	.	.	.	.	8qqb/	.
8F#\L	.	2ryy	2ryy	2ryy	2ryy	2ryy	4.a\	.
8E\	.	.	.	.	.	.	.	.
8D#X\	.	.	.	.	.	.	.	.
8BB\J	.	.	.	.	.	.	16g#\LL	.
.	.	.	.	.	.	.	16f#\JJ	.
=25	=25	=25	=25	=25	=25	=25	=25	=25
8E\L	.	2ryy	2ryy	2ryy	2ryy	2ryy	8g#\L	.
8E\	.	.	.	.	.	.	(16f#\L	.
.	.	.	.	.	.	.	16g#\JJ)	.
8C#\	.	.	.	.	.	.	8a\L	.
8AA\J	.	.	.	.	.	.	(16g#\L	.
.	.	.	.	.	.	.	16f#\JJ)	.
=26	=26	=26	=26	=26	=26	=26	=26	=26
8BB/L	4	2ryy	2ryy	2ryy	2ryy	2ryy	8.e/L	.
8BB/	.	.	.	.	.	.	.	.
.	.	.	.	.	.	.	16f#/Jk	.
8BB/	#3	.	.	.	.	.	4f#/	-bi-
8BB/J	.	.	.	.	.	.	.	.
=27	=27	=27	=27	=27	=27	=27	=27	=27
8E\L	.	2ryy	2ryy	2ryy	2ryy	2ryy	8e/	-tur
8G#\	.	.	.	.	.	.	16b\LL	non
.	.	.	.	.	.	.	16g#\JJ	.
8A\	.	.	.	.	.	.	16cc#\LL	com-
.	.	.	.	.	.	.	16a\JJ	.
8D#X\J	.	.	.	.	.	.	16g#\LL	-mo-
.	.	.	.	.	.	.	16f#\JJ	.
!LO:LB:g=original	!	!	!	!	!	!	!LO:LB:g=original	!
=28	=28	=28	=28	=28	=28	=28	=28	=28
8E\L	.	2ryy	2ryy	2ryy	2ryy	2ryy	8g#\L	-ve-
8G#\	.	.	.	.	.	.	16b\L	.
.	.	.	.	.	.	.	16g#\JJ	.
8A\	.	.	.	.	.	.	16cc#\LL	.
.	.	.	.	.	.	.	16a\	.
8D#X\J	.	.	.	.	.	.	16g#\	.
.	.	.	.	.	.	.	16f#\JJ	.
=29	=29	=29	=29	=29	=29	=29	=29	=29
8E\L	.	2ryy	2ryy	2ryy	2ryy	2ryy	8g#\L	.
8G#\	.	.	.	.	.	.	16b\L	.
.	.	.	.	.	.	.	16g#\JJ	.
8A\	.	.	.	.	.	.	16cc#\LL	.
.	.	.	.	.	.	.	16a\	.
8D#X\J	.	.	.	.	.	.	16g#\	.
.	.	.	.	.	.	.	16f#\JJ	.
=30	=30	=30	=30	=30	=30	=30	=30	=30
8E\L	.	2ryy	2ryy	2ryy	2ryy	2ryy	8g#\L	.
8G#\	.	.	.	.	.	.	8ee\J	.
.	.	.	.	.	.	.	8qqdd/	.
8A\	.	.	.	.	.	.	8cc#\L	.
8D#X\J	.	.	.	.	.	.	16b\L	.
.	.	.	.	.	.	.	16a\JJ	.
!	!	!	!	!	!	!	!LO:PB:g=original	!
=31	=31	=31	=31	=31	=31	=31	=31	=31
*	*below	*	*	*	*	*	*	*
.	.	.	.	.	.	.	8qqa/	.
8E\L	.	2ryy	2ryy	2ryy	2ryy	2ryy	8g#\L	.
8G#\	.	.	.	.	.	.	16f#\L	.
.	.	.	.	.	.	.	16e\JJ	.
8A\	#3	.	.	.	.	.	4f#/	-bi-
8B\J	.	.	.	.	.	.	.	.
=32	=32	=32	=32	=32	=32	=32	=32	=32
*	*above	*	*	*	*	*	*	*
!LO:TX:a:t=Rit(ornel)lo.	!	!	!	!	!	!	!	!
8E\L	.	2ryy	2ryy	2ryy	2ryy	2ryy	4e/	-tur
16F#\L	.	.	.	.	.	.	.	.
16G#\JJ	.	.	.	.	.	.	.	.
8F#\L	.	.	.	.	.	.	4r	.
8E\J	.	.	.	.	.	.	.	.
!LO:LB:g=original	!	!	!	!	!	!	!	!
=33	=33	=33	=33	=33	=33	=33	=33	=33
!	!	!	!	!	!	!	!LO:TX:b:t=3	!
!	!	!	!	!	!	!	!LO:N:vis=0	!
8D#X\L	.	2ryy	2ryy	2ryy	2ryy	2ryy	1r	.
8E\J	.	.	.	.	.	.	.	.
8r	.	.	.	.	.	.	.	.
8e\	.	.	.	.	.	.	.	.
=34	=34	=34	=34	=34	=34	=34	=34	=34
8A\L	.	2ryy	2ryy	2ryy	2ryy	2ryy	.	.
16G#\L	.	.	.	.	.	.	.	.
16A\JJ	.	.	.	.	.	.	.	.
!LO:TX:t=P:problem=mixed beam	!	!	!	!	!	!	!	!
8B\L	.	.	.	.	.	.	.	.
8BB/J	#3	.	.	.	.	.	.	.
=35	=35	=35	=35	=35	=35	=35	=35	=35
8E\L	.	2ryy	2ryy	2ryy	2ryy	2ryy	2r	.
8BB\J	.	.	.	.	.	.	.	.
4EE/	.	.	.	.	.	.	.	.
=36	=36	=36	=36	=36	=36	=36	=36	=36
!LO:TX:a:t=C(ant)o.	!	!	!	!	!	!	!	!
4E\	.	2ryy	2ryy	2ryy	2ryy	2ryy	4e/	Iu-
8r	.	.	.	.	.	.	8f#/	-cun-
8E\	.	.	.	.	.	.	8g#/	-dus
!	!	!	!	!	!	!	!LO:LB:g=original	!
=37	=37	=37	=37	=37	=37	=37	=37	=37
8B\L	.	2ryy	2ryy	2ryy	2ryy	2ryy	8d#X/	ho-
16G#\L	.	.	.	.	.	.	8e/	-mo
16F#\JJ	.	.	.	.	.	.	.	.
8G#\L	.	.	.	.	.	.	8r	.
8E\J	.	.	.	.	.	.	8ee\	qui
!LO:LB:g=original	!	!	!	!	!	!	!	!
=38	=38	=38	=38	=38	=38	=38	=38	=38
8A\	.	2ryy	2ryy	2ryy	2ryy	2ryy	8cc#\	mi-
4G#\	.	.	.	.	.	.	4b\	-se-
8F#\	.	.	.	.	.	.	8a\	.
=39	=39	=39	=39	=39	=39	=39	=39	=39
8G#\	.	2ryy	2ryy	2ryy	2ryy	2ryy	8b\	-re-
4F#\	.	.	.	.	.	.	4a\	-tur
8E\	.	.	.	.	.	.	8g#\	et
=40	=40	=40	=40	=40	=40	=40	=40	=40
*	*below	*	*	*	*	*	*	*
4F#\	.	2ryy	2ryy	2ryy	2ryy	2ryy	8a\	com-
.	.	.	.	.	.	.	4g#\	.
4BB/	#3	.	.	.	.	.	.	.
.	.	.	.	.	.	.	8f#\	-mo-
!	!	!	!	!	!	!	!LO:LB:g=original	!
=41	=41	=41	=41	=41	=41	=41	=41	=41
4E\	.	2ryy	2ryy	2ryy	2ryy	2ryy	4g#\	-dat
4r	.	.	.	.	.	.	4ee\	dis-
=42	=42	=42	=42	=42	=42	=42	=42	=42
4r	.	2ryy	2ryy	2ryy	2ryy	2ryy	4a#X\	-po-
4Gn\	.	.	.	.	.	.	4b\	-net
!LO:PB:g=original	!	!	!	!	!	!	!	!
=43	=43	=43	=43	=43	=43	=43	=43	=43
4.AA#X/	.	2ryy	2ryy	2ryy	2ryy	2ryy	8.cc#\L	ser-
.	.	.	.	.	.	.	32dd\LL	.
.	.	.	.	.	.	.	32ee\JJJ	.
.	.	.	.	.	.	.	8dd\	-mo-
8F#\	.	.	.	.	.	.	8cc#\	-nes
=44	=44	=44	=44	=44	=44	=44	=44	=44
4B\	.	2ryy	2ryy	2ryy	2ryy	2ryy	8dd\L	su-
.	.	.	.	.	.	.	8a#X\J	.
4d\	.	.	.	.	.	.	4b\	-os
=45	=45	=45	=45	=45	=45	=45	=45	=45
4G#X\	.	2ryy	2ryy	2ryy	2ryy	2ryy	4r	.
4A\	.	.	.	.	.	.	4ee\	dis-
=46	=46	=46	=46	=46	=46	=46	=46	=46
*	*above	*	*	*	*	*	*	*
4B\	6	2ryy	2ryy	2ryy	2ryy	2ryy	4g#\	-po-
8c#\L	6	.	.	.	.	.	4a\	-net
8A\J	.	.	.	.	.	.	.	.
=47	=47	=47	=47	=47	=47	=47	=47	=47
2E\	#	2ryy	2ryy	2ryy	2ryy	2ryy	8.b\L	ser-
.	.	.	.	.	.	.	32cc#\LL	.
.	.	.	.	.	.	.	32dd\JJJ	.
.	.	.	.	.	.	.	8cc#\	-mo-
.	.	.	.	.	.	.	8b\	-nes
!	!	!	!	!	!	!	!LO:LB:g=original	!
=48	=48	=48	=48	=48	=48	=48	=48	=48
8A\L	.	2ryy	2ryy	2ryy	2ryy	2ryy	8cc#\	su-
8B\	.	.	.	.	.	.	8b\	-oſ
8c#\	.	.	.	.	.	.	[4a\	in
8B\J	.	.	.	.	.	.	.	.
!LO:LB:g=original	!	!	!	!	!	!	!	!
=49	=49	=49	=49	=49	=49	=49	=49	=49
4A\	.	2ryy	2ryy	2ryy	2ryy	2ryy	8a\L]	.
.	.	.	.	.	.	.	8cc#\J	.
4A\	.	.	.	.	.	.	8cc#\L	iu-
.	.	.	.	.	.	.	8ee\J	.
=50	=50	=50	=50	=50	=50	=50	=50	=50
4C#\	.	2ryy	2ryy	2ryy	2ryy	2ryy	8ee\	-di-
.	.	.	.	.	.	.	4dd\	.
4D\	.	.	.	.	.	.	.	.
.	.	.	.	.	.	.	8cc#\	-ci-
=51	=51	=51	=51	=51	=51	=51	=51	=51
8E\L	.	2ryy	2ryy	2ryy	2ryy	2ryy	4b\	-o
8E\	.	.	.	.	.	.	.	.
8G#\	#3	.	.	.	.	.	4r	.
8B\J	.	.	.	.	.	.	.	.
=52	=52	=52	=52	=52	=52	=52	=52	=52
8E\L	.	2ryy	2ryy	2ryy	2ryy	2ryy	8.b\	qui-
8E\	.	.	.	.	.	.	.	.
!	!	!	!	!	!	!	!LO:N:vis=16	!
.	.	.	.	.	.	.	(32dd\LLL	-a
!	!	!	!	!	!	!	!LO:N:vis=16	!
.	.	.	.	.	.	.	32cc#\JJJ)	.
8E\	.	.	.	.	.	.	8b\	in
8E\J	.	.	.	.	.	.	8b\	ae-
=53	=53	=53	=53	=53	=53	=53	=53	=53
8D\L	6	2ryy	2ryy	2ryy	2ryy	2ryy	8b\L	-ter-
8D\	.	.	.	.	.	.	8a#X\J	.
8D\	.	.	.	.	.	.	4b\	-num
8D\J	.	.	.	.	.	.	.	.
!	!	!	!	!	!	!	!LO:LB:g=original	!
=54	=54	=54	=54	=54	=54	=54	=54	=54
8GG#X/L	.	2ryy	2ryy	2ryy	2ryy	2ryy	8b\L	non
8GG#/	.	.	.	.	.	.	16dd\L	.
.	.	.	.	.	.	.	16cc#\JJ	.
8GG#/	.	.	.	.	.	.	8b\	com-
8GG#/J	.	.	.	.	.	.	8b\	-mo-
!LO:LB:g=original	!	!	!	!	!	!	!	!
=55	=55	=55	=55	=55	=55	=55	=55	=55
*	*below	*	*	*	*	*	*	*
8AA/L	9	2ryy	2ryy	2ryy	2ryy	2ryy	8.b\	-ve-
8AA/	8	.	.	.	.	.	.	.
.	.	.	.	.	.	.	16a\	-bi-
8AA/	.	.	.	.	.	.	4a\	-tur
8AA/J	.	.	.	.	.	.	.	.
=56	=56	=56	=56	=56	=56	=56	=56	=56
8C#\L	.	2ryy	2ryy	2ryy	2ryy	2ryy	4ee\	non
8C#\	.	.	.	.	.	.	.	.
8C#\	.	.	.	.	.	.	8cc#\	com-
8C#\J	.	.	.	.	.	.	8a\	-mo-
=57	=57	=57	=57	=57	=57	=57	=57	=57
8D\L	.	2ryy	2ryy	2ryy	2ryy	2ryy	16f#/LL	-ve-
.	.	.	.	.	.	.	16e/	.
8D\	.	.	.	.	.	.	16f#/	.
.	.	.	.	.	.	.	16g#/JJ	.
8D\	.	.	.	.	.	.	4f#/	.
8D\J	.	.	.	.	.	.	.	.
!	!	!	!	!	!	!	!LO:LB:g=original	!
=58	=58	=58	=58	=58	=58	=58	=58	=58
*	*	*	*	*	*	*	*2\right	*
8D\L	.	2ryy	2ryy	2ryy	2ryy	2ryy	2dd\	.
8D\	.	.	.	.	.	.	.	.
8D\	.	.	.	.	.	.	.	.
8D\J	.	.	.	.	.	.	.	.
=59	=59	=59	=59	=59	=59	=59	=59	=59
*	*above	*	*	*	*	*	*	*
8E\L	#3	2ryy	2ryy	2ryy	2ryy	2ryy	16g#\LL	.
.	.	.	.	.	.	.	16f#\	.
8E\	.	.	.	.	.	.	16g#\	.
.	.	.	.	.	.	.	16a\JJ	.
8E\	.	.	.	.	.	.	4g#\	.
8E\J	.	.	.	.	.	.	.	.
=60	=60	=60	=60	=60	=60	=60	=60	=60
8E\L	.	2ryy	2ryy	2ryy	2ryy	2ryy	2dd\	.
8E\	4	.	.	.	.	.	.	.
8E\	.	.	.	.	.	.	.	.
8E\J	.	.	.	.	.	.	.	.
!LO:LB:g=original	!	!	!	!	!	!	!	!
=61	=61	=61	=61	=61	=61	=61	=61	=61
8F#\L	.	2ryy	2ryy	2ryy	2ryy	2ryy	16a\LL	.
.	.	.	.	.	.	.	16g#\	.
8F#\	.	.	.	.	.	.	16a\	.
.	.	.	.	.	.	.	16b\JJ	.
8F#\	.	.	.	.	.	.	4a\	.
8F#\J	.	.	.	.	.	.	.	.
=62	=62	=62	=62	=62	=62	=62	=62	=62
8F#\L	6	2ryy	2ryy	2ryy	2ryy	2ryy	2dd\	.
8F#\	.	.	.	.	.	.	.	.
8F#\	.	.	.	.	.	.	.	.
8F#\J	.	.	.	.	.	.	.	.
!	!	!	!	!	!	!	!LO:LB:g=original	!
=63	=63	=63	=63	=63	=63	=63	=63	=63
8G#\L	.	2ryy	2ryy	2ryy	2ryy	2ryy	16b\LL	.
.	.	.	.	.	.	.	16a\	.
8G#\	.	.	.	.	.	.	16b\	.
.	.	.	.	.	.	.	16cc#\JJ	.
8G#\	.	.	.	.	.	.	4b\	.
8G#\J	.	.	.	.	.	.	.	.
=64	=64	=64	=64	=64	=64	=64	=64	=64
8G#\L	5	2ryy	2ryy	2ryy	2ryy	2ryy	2dd\	.
8G#\	.	.	.	.	.	.	.	.
8G#\	.	.	.	.	.	.	.	.
8G#\J	.	.	.	.	.	.	.	.
=65	=65	=65	=65	=65	=65	=65	=65	=65
8A\L	.	2ryy	2ryy	2ryy	2ryy	2ryy	8cc#\L	.
8A\	.	.	.	.	.	.	(16b\L	.
.	.	.	.	.	.	.	16a\JJ)	.
8A\	.	.	.	.	.	.	8a\L	.
8A\J	.	.	.	.	.	.	8a\J	.
=66	=66	=66	=66	=66	=66	=66	=66	=66
8r	.	2ryy	2ryy	2ryy	2ryy	2ryy	8.a\L	.
8A\L	.	.	.	.	.	.	.	.
.	.	.	.	.	.	.	(32b\LL	.
.	.	.	.	.	.	.	32cc#\JJJ)	.
8G#\	.	.	.	.	.	.	8b\L	.
8E\J	.	.	.	.	.	.	8dd\J	.
!LO:LB:g=original	!	!	!	!	!	!	!LO:LB:g=original	!
=67	=67	=67	=67	=67	=67	=67	=67	=67
!	!	!	!	!	!	!	!LO:TX:t=P:problem=brak taktów nr 67-68	!
4A\	.	2ryy	2ryy	2ryy	2ryy	2ryy	2ryy	.
4r	.	.	.	.	.	.	.	.
=68	=68	=68	=68	=68	=68	=68	=68	=68
8r	.	2ryy	2ryy	2ryy	2ryy	2ryy	2ryy	.
8A\L	.	.	.	.	.	.	.	.
8G#\	.	.	.	.	.	.	.	.
8E\J	.	.	.	.	.	.	.	.
=69	=69	=69	=69	=69	=69	=69	=69	=69
4A\	.	2ryy	2ryy	2ryy	2ryy	2ryy	16cc#\LL	.
.	.	.	.	.	.	.	16a\	.
.	.	.	.	.	.	.	16cc#\	.
.	.	.	.	.	.	.	16dd\JJ	.
8C#\L	.	.	.	.	.	.	16ee\LL	.
.	.	.	.	.	.	.	16cc#\	.
8D\J	.	.	.	.	.	.	16b\	.
.	.	.	.	.	.	.	16a\JJ	.
=70	=70	=70	=70	=70	=70	=70	=70	=70
8E\L	.	2ryy	2ryy	2ryy	2ryy	2ryy	4e/	.
8E\	#3	.	.	.	.	.	.	.
8E\	.	.	.	.	.	.	4b\	-bi-
8E\J	.	.	.	.	.	.	.	.
=71	=71	=71	=71	=71	=71	=71	=71	=71
8F#\L	.	2ryy	2ryy	2ryy	2ryy	2ryy	8a\	-tur
8G#\	.	.	.	.	.	.	8b\	non
8A\	.	.	.	.	.	.	8cc#\	com-
8B\J	.	.	.	.	.	.	8dd\	-mo-
=72	=72	=72	=72	=72	=72	=72	=72	=72
4c#\	.	2ryy	2ryy	2ryy	2ryy	2ryy	8.ee\L	-ne-
.	.	.	.	.	.	.	32dd\LL	.
.	.	.	.	.	.	.	32ee\JJJ	.
8d\L	.	.	.	.	.	.	8ff#\L	.
8D\J	.	.	.	.	.	.	8dd\J	.
!LO:LB:g=original	!	!	!	!	!	!	!LO:LB:g=original	!
=73	=73	=73	=73	=73	=73	=73	=73	=73
8E\L	6 4	2ryy	2ryy	2ryy	2ryy	2ryy	8cc#\L	.
8E\	.	.	.	.	.	.	16b\L	.
.	.	.	.	.	.	.	16a\JJ	.
8E\	5 #3	.	.	.	.	.	4b\	-bi-
8E\J	.	.	.	.	.	.	.	.
=74	=74	=74	=74	=74	=74	=74	=74	=74
!LO:TX:a:t=Rit(ornel)lo.	!	!	!	!	!	!	!	!
8A\L	.	2ryy	2ryy	2ryy	2ryy	2ryy	4a\	-tur
16B\L	.	.	.	.	.	.	.	.
16c#\JJ	.	.	.	.	.	.	.	.
8B\L	.	.	.	.	.	.	4r	.
8A\J	.	.	.	.	.	.	.	.
=75	=75	=75	=75	=75	=75	=75	=75	=75
!	!	!	!	!	!	!	!LO:N:vis=0	!
8G#\L	.	2ryy	2ryy	2ryy	2ryy	2ryy	1r	.
8A\J	.	.	.	.	.	.	.	.
8r	.	.	.	.	.	.	.	.
8C#/	.	.	.	.	.	.	.	.
=76	=76	=76	=76	=76	=76	=76	=76	=76
8D\L	.	2ryy	2ryy	2ryy	2ryy	2ryy	.	.
16C#\L	.	.	.	.	.	.	.	.
16D\JJ	.	.	.	.	.	.	.	.
!LO:TX:t=P:problem=mixed beam	!	!	!	!	!	!	!	!
8E\L	.	.	.	.	.	.	.	.
8EE/J	.	.	.	.	.	.	.	.
=77	=77	=77	=77	=77	=77	=77	=77	=77
4A 4E 4AA/	.	2ryy	2ryy	2ryy	2ryy	2ryy	2r	.
4r	.	.	.	.	.	.	.	.
==	==	==	==	==	==	==	==	==
*-	*-	*-	*-	*-	*-	*-	*-	*-
!!!system-decoration: [g1][g2]s7
!!!RDF**kern: > = above
!!!RDF**kern: < = below
!!!AIN: 2 alto 1 empty 1 organ 1 tenor 2 vox
!!!ENC: Andrzej Kubiczek
!!!END: 2021-03-30
!!!ENC: Andrzej Gręziak
!!!END: 2021-03-17
